assets/login-img.svg

<svg width="572" height="506" fill="none" xmlns="http://www.w3.org/2000/svg"><path d="M501.165 20.038S464.285 7.314 400.03 40.883c-64.254 33.57-247.792 128.601-247.792 128.601l125.415 239.393s218.464-80.381 234.263-117.131c15.807-36.742-27.81-180.544-27.81-180.544l17.059-91.162Z" fill="#E7D8C9" stroke="#1B2E3F" stroke-miterlimit="10" stroke-linecap="round"/><path d="M521.28 211.233c25.086-.904 46.153 18.743 47.055 43.883.902 25.139-18.702 46.252-43.787 47.156l-87.638 3.159c-25.085.905-46.152-18.742-47.055-43.882-.902-25.139 18.702-46.252 43.788-47.156l87.637-3.16Z" fill="#E7D8C9" stroke="#1B2E3F" stroke-miterlimit="10" stroke-linecap="round"/><path d="M499.299 129.82c23.81-7.966 49.555 4.921 57.503 28.782 7.948 23.862-4.91 49.663-28.72 57.628L444.9 244.058c-23.81 7.965-49.555-4.921-57.503-28.782-7.949-23.862 4.91-49.663 28.72-57.628l83.182-27.828Z" fill="#E7D8C9" stroke="#1B2E3F" stroke-miterlimit="10" stroke-linecap="round"/><path d="m292.421 157.074 29.918 20.002c18.707 12.514 43.689 9.697 59.165-6.662 19.644-20.763 15.977-54.227-7.681-70.23L330.02 70.558c-22.487-15.21-52.138-14.417-73.785 1.99l-103.994 96.943" fill="#E7D8C9"/><path d="m292.421 157.074 29.918 20.002c18.707 12.514 43.689 9.697 59.165-6.662 19.644-20.763 15.977-54.227-7.681-70.23L330.02 70.558c-22.487-15.21-52.138-14.417-73.785 1.99l-103.994 96.943" stroke="#1B2E3F" stroke-miterlimit="10" stroke-linecap="round"/><path d="M383.804 121.36c36.153 0 65.466 29.376 65.466 65.607 0 36.232-29.313 65.608-65.466 65.608-36.154 0-65.466-29.376-65.466-65.608 0-36.231 29.312-65.607 65.466-65.607Zm0 119.186c29.522 0 53.463-23.984 53.463-53.579 0-29.594-23.933-53.578-53.463-53.578s-53.463 23.984-53.463 53.578c0 29.595 23.933 53.579 53.463 53.579Z" fill="#505050" stroke="#1B2E3F" stroke-miterlimit="10"/><path d="M327.733 244.982c4.766-24.049 27.632-40.514 51.888-37.333 26.639 3.497 44.699 28.494 40.047 54.704-3.167 17.849-16.025 31.529-32.18 36.572l-19.773 111.383-13.844-2.469-11.276-26.291a1.653 1.653 0 0 0-.896-.866c-6.099-2.558-9.822-9.091-8.619-15.882a14.482 14.482 0 0 1 10.242-11.389 1.628 1.628 0 0 0 .517-2.898c-4.305-3.165-6.696-8.605-5.694-14.239a14.48 14.48 0 0 1 10.241-11.389 1.628 1.628 0 0 0 .517-2.898c-4.305-3.165-6.696-8.605-5.694-14.23a14.484 14.484 0 0 1 10.137-11.357c-18.739-9.01-29.886-29.886-25.613-51.426v.008Zm42.276 29.449c11.179 1.991 21.857-5.472 23.844-16.675 1.987-11.204-5.46-21.905-16.639-23.896-11.179-1.991-21.857 5.472-23.844 16.675-1.987 11.203 5.46 21.904 16.639 23.896Z" fill="#505050" stroke="#1B2E3F" stroke-miterlimit="10"/><path d="M389.613 293.259c-25.306 4.055-49.198-13.065-53.495-38.442-4.322-25.522 12.826-49.725 38.294-54.056 25.467-4.331 49.618 12.854 53.939 38.377 3.021 17.865-4.475 35.074-17.98 45.282l18.885 111.561-42.381 7.204-3.595-21.24 21.195-3.603-3.594-21.24-21.195 3.602-3.594-21.24 21.194-3.603-7.188-42.464-.485-.146v.008Zm12.899-49.734c-1.898-11.219-12.511-18.771-23.714-16.869-11.203 1.902-18.731 12.538-16.833 23.766 1.898 11.227 12.511 18.771 23.714 16.869 11.195-1.902 18.731-12.538 16.833-23.766Z" fill="#505050" stroke="#1B2E3F" stroke-miterlimit="10"/><path d="M349.689 261.682c-10.266-22.253-1.454-49.054 20.031-60.783 23.594-12.887 52.866-3.327 64.497 20.609 7.924 16.302 5.557 34.936-4.54 48.544l49.417 101.718-12.641 6.168-24.555-14.611a1.622 1.622 0 0 0-1.227-.17c-6.43 1.53-13.279-1.554-16.292-7.755-2.496-5.132-1.688-11.025 1.599-15.25.848-1.093.097-2.647-1.284-2.647a14.455 14.455 0 0 1-12.964-8.152c-2.496-5.132-1.688-11.025 1.599-15.25a1.629 1.629 0 0 0-1.284-2.647 14.46 14.46 0 0 1-12.964-8.143c-2.48-5.1-1.696-10.944 1.527-15.162-20.444 3.772-41.711-6.54-50.903-26.469h-.016Zm51.476-1.126c10.21-4.978 14.458-17.314 9.483-27.546-4.968-10.231-17.278-14.489-27.487-9.503-10.21 4.978-14.458 17.315-9.483 27.546 4.968 10.232 17.277 14.49 27.487 9.503Z" fill="#505050" stroke="#1B2E3F" stroke-miterlimit="10"/><path d="M383.804 240.546c29.522 0 53.463-23.984 53.463-53.579a53.439 53.439 0 0 0-9.814-30.946l8.166-9.155c8.554 11.09 13.651 24.997 13.651 40.101 0 36.232-29.313 65.608-65.466 65.608" fill="#505050"/><path d="M383.804 240.546c29.522 0 53.463-23.984 53.463-53.579a53.439 53.439 0 0 0-9.814-30.946l8.166-9.155c8.554 11.09 13.651 24.997 13.651 40.101 0 36.232-29.313 65.608-65.466 65.608" stroke="#1B2E3F" stroke-miterlimit="10"/><path d="M462.452 34.93c16.784-18.753 45.56-20.32 64.273-3.5 18.713 16.821 20.276 45.66 3.492 64.413L471.75 161.17c-16.785 18.754-45.561 20.321-64.274 3.5-18.712-16.821-20.276-45.659-3.492-64.412l58.468-65.327Z" fill="#E7D8C9" stroke="#1B2E3F" stroke-miterlimit="10" stroke-linecap="round"/><path d="m1.182 246.981 151.06-77.49 129.429 239.676c6.97 12.903 2.237 29.019-10.598 36.086L169.01 501.446c-12.948 7.132-29.207 2.332-36.234-10.685L1.182 246.981Z" fill="#6D6460" stroke="#1B2E3F" stroke-miterlimit="10" stroke-linecap="round"/><path d="M183.435 446.143c-19.432 0-35.184-15.786-35.184-35.26 0-19.474 15.752-35.261 35.184-35.261 19.432 0 35.184 15.787 35.184 35.261 0 19.474-15.752 35.26-35.184 35.26Z" fill="#BBCBB6" stroke="#1B2E3F" stroke-miterlimit="10" stroke-linecap="round"/><path d="M193.709 405.856a5.264 5.264 0 0 1-5.259-5.269 5.265 5.265 0 0 1 5.259-5.27 5.264 5.264 0 0 1 5.258 5.27 5.263 5.263 0 0 1-5.258 5.269Zm-20.549 0a5.264 5.264 0 0 1-5.259-5.269 5.265 5.265 0 0 1 5.259-5.27 5.264 5.264 0 0 1 5.258 5.27 5.263 5.263 0 0 1-5.258 5.269Zm20.549 20.593a5.265 5.265 0 0 1-5.259-5.27 5.264 5.264 0 0 1 5.259-5.269 5.263 5.263 0 0 1 5.258 5.269 5.264 5.264 0 0 1-5.258 5.27Zm-20.549 0a5.265 5.265 0 0 1-5.259-5.27 5.264 5.264 0 0 1 5.259-5.269 5.263 5.263 0 0 1 5.258 5.269 5.264 5.264 0 0 1-5.258 5.27Z" fill="#1B2E3F"/></svg>

<svg width="572" height="506" viewBox="0 0 572 506" fill="none" xmlns="http://www.w3.org/2000/svg">
<path d="M501.165 20.0385C501.165 20.0385 464.285 7.31365 400.03 40.8824C335.776 74.4511 152.238 169.483 152.238 169.483L277.653 408.876C277.653 408.876 496.117 328.495 511.916 291.745C527.723 255.003 484.106 111.201 484.106 111.201L501.165 20.0385Z" fill="#E7D8C9" stroke="#1B2E3F" stroke-miterlimit="10" stroke-linecap="round"/>
<path d="M521.28 211.233C546.366 210.329 567.433 229.976 568.335 255.116C569.237 280.255 549.633 301.368 524.548 302.272L436.91 305.431C411.825 306.336 390.758 286.689 389.855 261.549C388.953 236.41 408.557 215.297 433.643 214.393L521.28 211.233Z" fill="#E7D8C9" stroke="#1B2E3F" stroke-miterlimit="10" stroke-linecap="round"/>
<path d="M499.299 129.82C523.109 121.854 548.854 134.741 556.802 158.602C564.75 182.464 551.892 208.265 528.082 216.23L444.9 244.058C421.09 252.023 395.345 239.137 387.397 215.276C379.448 191.414 392.307 165.613 416.117 157.648L499.299 129.82Z" fill="#E7D8C9" stroke="#1B2E3F" stroke-miterlimit="10" stroke-linecap="round"/>
<path d="M292.421 157.074L322.339 177.076C341.046 189.59 366.028 186.773 381.504 170.414C401.148 149.651 397.481 116.187 373.823 100.184L330.02 70.5577C307.533 55.3477 277.882 56.141 256.235 72.5489L152.241 169.491" fill="#E7D8C9"/>
<path d="M292.421 157.074L322.339 177.076C341.046 189.59 366.028 186.773 381.504 170.414C401.148 149.651 397.481 116.187 373.823 100.184L330.02 70.5577C307.533 55.3477 277.882 56.141 256.235 72.5489L152.241 169.491" stroke="#1B2E3F" stroke-miterlimit="10" stroke-linecap="round"/>
<path d="M383.804 121.36C419.957 121.36 449.27 150.736 449.27 186.967C449.27 223.199 419.957 252.575 383.804 252.575C347.65 252.575 318.338 223.199 318.338 186.967C318.338 150.736 347.65 121.36 383.804 121.36ZM383.804 240.546C413.326 240.546 437.267 216.562 437.267 186.967C437.267 157.373 413.334 133.389 383.804 133.389C354.274 133.389 330.341 157.373 330.341 186.967C330.341 216.562 354.274 240.546 383.804 240.546Z" fill="#505050" stroke="#1B2E3F" stroke-miterlimit="10"/>
<path d="M327.733 244.982C332.499 220.933 355.365 204.468 379.621 207.649C406.26 211.146 424.32 236.143 419.668 262.353C416.501 280.202 403.643 293.882 387.488 298.925L367.715 410.308L353.871 407.839L342.595 381.548C342.425 381.151 342.102 380.852 341.699 380.682C335.6 378.124 331.877 371.591 333.08 364.8C334.082 359.174 338.193 354.892 343.322 353.411C344.655 353.03 344.954 351.33 343.839 350.513C339.534 347.348 337.143 341.908 338.145 336.274C339.146 330.648 343.257 326.366 348.386 324.885C349.719 324.504 350.018 322.805 348.903 321.987C344.598 318.822 342.207 313.382 343.209 307.757C344.202 302.171 348.265 297.913 353.346 296.4C334.607 287.39 323.46 266.514 327.733 244.974V244.982ZM370.009 274.431C381.188 276.422 391.866 268.959 393.853 257.756C395.84 246.552 388.393 235.851 377.214 233.86C366.035 231.869 355.357 239.332 353.37 250.535C351.383 261.738 358.83 272.439 370.009 274.431Z" fill="#505050" stroke="#1B2E3F" stroke-miterlimit="10"/>
<path d="M389.613 293.259C364.307 297.314 340.415 280.194 336.118 254.817C331.796 229.295 348.944 205.092 374.412 200.761C399.879 196.43 424.03 213.615 428.351 239.138C431.372 257.003 423.876 274.212 410.371 284.42L429.256 395.981L386.875 403.185L383.28 381.945L404.475 378.342L400.881 357.102L379.686 360.704L376.092 339.464L397.286 335.861L390.098 293.397L389.613 293.251V293.259ZM402.512 243.525C400.614 232.306 390.001 224.754 378.798 226.656C367.595 228.558 360.067 239.194 361.965 250.422C363.863 261.649 374.476 269.193 385.679 267.291C396.874 265.389 404.41 254.753 402.512 243.525Z" fill="#505050" stroke="#1B2E3F" stroke-miterlimit="10"/>
<path d="M349.689 261.682C339.423 239.429 348.235 212.628 369.72 200.899C393.314 188.012 422.586 197.572 434.217 221.508C442.141 237.81 439.774 256.444 429.677 270.052L479.094 371.77L466.453 377.938L441.898 363.327C441.527 363.108 441.091 363.052 440.671 363.157C434.241 364.687 427.392 361.603 424.379 355.402C421.883 350.27 422.691 344.377 425.978 340.152C426.826 339.059 426.075 337.505 424.694 337.505C419.355 337.489 414.226 334.493 411.73 329.353C409.234 324.221 410.042 318.328 413.329 314.103C414.177 313.01 413.426 311.464 412.045 311.456C406.706 311.44 401.577 308.445 399.081 303.313C396.601 298.213 397.385 292.369 400.608 288.151C380.164 291.923 358.897 281.611 349.705 261.682H349.689ZM401.165 260.556C411.375 255.578 415.623 243.242 410.648 233.01C405.68 222.779 393.37 218.521 383.161 223.507C372.951 228.485 368.703 240.822 373.678 251.053C378.646 261.285 390.955 265.543 401.165 260.556Z" fill="#505050" stroke="#1B2E3F" stroke-miterlimit="10"/>
<path d="M383.804 240.546C413.326 240.546 437.267 216.562 437.267 186.967C437.267 175.441 433.632 164.764 427.453 156.021L435.619 146.866C444.173 157.956 449.27 171.863 449.27 186.967C449.27 223.199 419.957 252.575 383.804 252.575" fill="#505050"/>
<path d="M383.804 240.546C413.326 240.546 437.267 216.562 437.267 186.967C437.267 175.441 433.632 164.764 427.453 156.021L435.619 146.866C444.173 157.956 449.27 171.863 449.27 186.967C449.27 223.199 419.957 252.575 383.804 252.575" stroke="#1B2E3F" stroke-miterlimit="10"/>
<path d="M462.452 34.9306C479.236 16.1772 508.012 14.6103 526.725 31.4309C545.438 48.2514 547.001 77.0898 530.217 95.8433L471.75 161.17C454.965 179.924 426.189 181.491 407.476 164.67C388.764 147.849 387.2 119.011 403.984 100.258L462.452 34.9306Z" fill="#E7D8C9" stroke="#1B2E3F" stroke-miterlimit="10" stroke-linecap="round"/>
<path d="M1.18185 246.981L152.242 169.491L281.671 409.167C288.641 422.07 283.908 438.186 271.073 445.253L169.01 501.446C156.062 508.578 139.803 503.778 132.776 490.761L1.18185 246.981Z" fill="#6D6460" stroke="#1B2E3F" stroke-miterlimit="10" stroke-linecap="round"/>
<path d="M183.435 446.143C164.003 446.143 148.251 430.357 148.251 410.883C148.251 391.409 164.003 375.622 183.435 375.622C202.867 375.622 218.619 391.409 218.619 410.883C218.619 430.357 202.867 446.143 183.435 446.143Z" fill="#BBCBB6" stroke="#1B2E3F" stroke-miterlimit="10" stroke-linecap="round"/>
<path d="M193.709 405.856C190.805 405.856 188.45 403.497 188.45 400.587C188.45 397.676 190.805 395.317 193.709 395.317C196.613 395.317 198.967 397.676 198.967 400.587C198.967 403.497 196.613 405.856 193.709 405.856Z" fill="#1B2E3F"/>
<path d="M173.16 405.856C170.256 405.856 167.901 403.497 167.901 400.587C167.901 397.676 170.256 395.317 173.16 395.317C176.064 395.317 178.418 397.676 178.418 400.587C178.418 403.497 176.064 405.856 173.16 405.856Z" fill="#1B2E3F"/>
<path d="M193.709 426.449C190.805 426.449 188.45 424.09 188.45 421.179C188.45 418.269 190.805 415.91 193.709 415.91C196.613 415.91 198.967 418.269 198.967 421.179C198.967 424.09 196.613 426.449 193.709 426.449Z" fill="#1B2E3F"/>
<path d="M173.16 426.449C170.256 426.449 167.901 424.09 167.901 421.179C167.901 418.269 170.256 415.91 173.16 415.91C176.064 415.91 178.418 418.269 178.418 421.179C178.418 424.09 176.064 426.449 173.16 426.449Z" fill="#1B2E3F"/>
</svg>
